Obsidian-SemiLight/actions/24s/xml-text-new.svg

<svg viewBox="0 0 24 24" xmlns="http://www.w3.org/2000/svg"><path d="m17 4v2h-2v1h2v2h1v-2h2v-1h-2v-2zm-8.0898438 2-3.3144531 9.59375-.1230469.40625-1.4726562 4h1.6582031l1.625-4.4375h5.4335939l1.625 4.4375h1.658203l-1.472656-4-.123047-.40625-3.314453-9.59375h-.214844-1.75zm1.1054688 1.9375 2.179687 6.34375h-4.3906245z" fill="#4d4d4d"/></svg>

<svg xmlns="http://www.w3.org/2000/svg" viewBox="0 0 24 24">
  <defs id="defs3051">
    <style type="text/css" id="current-color-scheme">
      .ColorScheme-Text {
        color:#4d4d4d;
      }
      </style>
  </defs>
 <path style="fill:currentColor;fill-opacity:1;stroke:none" 
     d="M 17 4 L 17 6 L 15 6 L 15 7 L 17 7 L 17 9 L 18 9 L 18 7 L 20 7 L 20 6 L 18 6 L 18 4 L 17 4 z M 8.9101562 6 L 5.5957031 15.59375 L 5.4726562 16 L 4 20 L 5.6582031 20 L 7.2832031 15.5625 L 12.716797 15.5625 L 14.341797 20 L 16 20 L 14.527344 16 L 14.404297 15.59375 L 11.089844 6 L 10.875 6 L 9.125 6 L 8.9101562 6 z M 10.015625 7.9375 L 12.195312 14.28125 L 7.8046875 14.28125 L 10.015625 7.9375 z "
     class="ColorScheme-Text"
     />
</svg>
